Gurmukhi/0A74.svg

<svg enable-background="new 0 0 448 592" viewBox="0 0 448 592" xmlns="http://www.w3.org/2000/svg"><path d="m253.511246 117.634613c26.559677-1.707664 44.490005 11.915161 58.97554 32.044312 7.339996-5.827774 14.046997-11.521347 21.129944-16.700791 15.203613-11.117714 31.524414-20.236526 50.4729-22.789322 18.829804-2.536819 36.372986.223839 49.10968 16.44336 8.039185 10.237487 10.78833 22.294143 11.629975 34.955658.070434 1.059188-.113312 2.05458-1.299866 2.388107-1.235169.347214-2.34848.061508-3.002258-1.131195-1.120057-2.043289-2.180481-4.119385-3.258393-6.185639-7.067169-13.547271-16.890899-23.664367-32.978332-25.240005-14.5112-1.421234-28.002533 2.324585-40.940949 8.794662-16.54544 8.273835-31.126068 19.227372-44.639831 31.72551-1.099762 1.017136-2.24231 1.992233-3.4133 2.926254-.508392.405487-1.139374.657227-1.691955.96608-2.401215-.863937-2.969544-3.160095-4.114472-4.908508-7.919494-12.093491-17.545563-22.308289-31.393493-27.523636-23.008316-8.665253-47.728974-.086426-63.004151 21.671722-6.363434 9.064163-10.663666 19.05037-13.391373 29.786438 2.695893 1.486313 5.236176.915741 7.659714.91774 43.494904.035965 86.990143.088974 130.484406-.083176 4.712005-.018631 7.490539 1.178849 8.76178 5.917771.942932 3.51503 2.722503 6.796753 3.886627 10.263916 1.069336 3.184952.014709 5.248566-3.659699 5.273102-5.332489.035614-10.682159.294952-15.992859-.041352-4.816558-.304992-6.493988 1.099778-6.778289 6.288544-.839295 15.316467-4.641938 29.871796-13.57663 42.727875-6.012634 8.651611-13.740997 15.254944-23.347046 19.678589.937592 2.451324 3.079895 2.830993 4.71048 3.809265 14.76535 8.858307 25.49472 20.750091 28.849823 38.211029 6.027496 31.36853-9.916046 58.647308-43.695954 64.415436-32.957244 5.627655-62.544372-8.80658-81.374893-38.714783-14.216003-22.579041-21.255325-47.528229-24.993683-73.63797-2.508712-17.521759-3.053314-35.095673-1.975357-52.760223.607056-9.947861.400879-9.960465-9.6651-9.958039-11.644531.002808-11.644531.002823-15.738617-10.655563-3.959579-10.308228-3.711776-10.682404 7.136795-10.710709 5.665985-.01477 11.349701-.299011 16.99234.059235 4.464081.283447 6.344986-1.238266 7.494538-5.674194 4.13446-15.954148 10.733749-30.875153 21.349243-43.645646 14.245544-17.137466 32.081894-27.772476 55.282715-28.903854m.752258 177.74939c-16.986206-.010376-33.972458-.00824-50.958603-.043335-2.862503-.005921-5.605942-.082093-4.757339 4.145996 3.713714 18.503448 9.917389 35.875427 22.372055 50.532471 17.093643 20.116394 41.217987 26.004852 62.647857 15.15802 20.139679-10.193787 24.352478-40.306244 8.119538-55.952881-10.302368-9.930237-22.978211-12.771057-37.423508-13.840271m39.233444-40.398575c8.730072-9.152039 12.8927-20.402603 15.040863-32.599136.697205-3.958634-.840301-5.289292-4.827301-5.275589-34.162903.11737-68.326446.129516-102.48938.02835-3.642196-.010772-4.894394 1.294663-5.274902 4.80687-1.617584 14.930679-2.307022 29.834701-.883285 44.843109.379943 4.005127 1.749374 4.995148 5.481079 4.964844 17.663742-.143585 35.330032-.154572 52.994049-.026184 15.475479.112487 28.645462-5.13559 39.958877-16.742264z"/><path d="m128.536835 386.563721c-9.204468-2.8219-11.539124-8.645294-11.127869-17.772858.823677-18.281372.241943-36.626129.240456-54.944702-.000145-1.796814-.000023-3.593659-.000023-5.826782-6.126564.991211-11.386032 3.021911-16.986969 3.736877-30.48243 3.891174-62.206825-19.763885-66.988033-50.162292-2.971112-18.890015 1.343399-35.521851 14.414371-49.825577 21.178543-23.175934 66.395073-22.648575 83.795876 12.677048 6.347061 12.885238 9.623214 26.532852 10.425338 40.770599 2.25885 40.095428.470764 80.231079.991272 120.345337.086899 6.697998-1.873642 7.78067-7.802231 4.655609-2.208541-1.164154-4.42073-2.321381-6.962188-3.653259m-70.269085-143.733383c-2.881893 6.029068-3.446266 12.417144-3.071125 18.987838.750324 13.142121 8.640632 23.069977 21.558487 25.961945 13.620239 3.049194 26.753776.348541 39.525192-4.655029 1.512901-.592743 2.405251-1.522309 2.568329-3.286042 1.359962-14.707977.926941-29.332672-3.935906-43.373855-5.100639-14.727799-18.673347-20.784928-33.417801-15.503372-10.608482 3.800018-17.725814 11.462356-23.227176 21.868515z"/></svg>

<svg version="1.1" id="Layer_1" xmlns="http://www.w3.org/2000/svg" xmlns:xlink="http://www.w3.org/1999/xlink" x="0px" y="0px"
	 width="100%" viewBox="0 0 448 592" enable-background="new 0 0 448 592" xml:space="preserve">
<path fill="#000000" opacity="1.000000" stroke="none" 
	d="
M253.511246,117.634613 
	C280.070923,115.926949 298.001251,129.549774 312.486786,149.678925 
	C319.826782,143.851151 326.533783,138.157578 333.616730,132.978134 
	C348.820343,121.860420 365.141144,112.741608 384.089630,110.188812 
	C402.919434,107.651993 420.462616,110.412651 433.199310,126.632172 
	C441.238495,136.869659 443.987640,148.926315 444.829285,161.587830 
	C444.899719,162.647018 444.715973,163.642410 443.529419,163.975937 
	C442.294250,164.323151 441.180939,164.037445 440.527161,162.844742 
	C439.407104,160.801453 438.346680,158.725357 437.268768,156.659103 
	C430.201599,143.111832 420.377869,132.994736 404.290436,131.419098 
	C389.779236,129.997864 376.287903,133.743683 363.349487,140.213760 
	C346.804047,148.487595 332.223419,159.441132 318.709656,171.939270 
	C317.609894,172.956406 316.467346,173.931503 315.296356,174.865524 
	C314.787964,175.271011 314.156982,175.522751 313.604401,175.831604 
	C311.203186,174.967667 310.634857,172.671509 309.489929,170.923096 
	C301.570435,158.829605 291.944366,148.614807 278.096436,143.399460 
	C255.088120,134.734207 230.367462,143.313034 215.092285,165.071182 
	C208.728851,174.135345 204.428619,184.121552 201.700912,194.857620 
	C204.396805,196.343933 206.937088,195.773361 209.360626,195.775360 
	C252.855530,195.811325 296.350769,195.864334 339.845032,195.692184 
	C344.557037,195.673553 347.335571,196.871033 348.606812,201.609955 
	C349.549744,205.124985 351.329315,208.406708 352.493439,211.873871 
	C353.562775,215.058823 352.508148,217.122437 348.833740,217.146973 
	C343.501251,217.182587 338.151581,217.441925 332.840881,217.105621 
	C328.024323,216.800629 326.346893,218.205399 326.062592,223.394165 
	C325.223297,238.710632 321.420654,253.265961 312.485962,266.122040 
	C306.473328,274.773651 298.744965,281.376984 289.138916,285.800629 
	C290.076508,288.251953 292.218811,288.631622 293.849396,289.609894 
	C308.614746,298.468201 319.344116,310.359985 322.699219,327.820923 
	C328.726715,359.189453 312.783173,386.468231 279.003265,392.236359 
	C246.046021,397.864014 216.458893,383.429779 197.628372,353.521576 
	C183.412369,330.942535 176.373047,305.993347 172.634689,279.883606 
	C170.125977,262.361847 169.581375,244.787933 170.659332,227.123383 
	C171.266388,217.175522 171.060211,217.162918 160.994232,217.165344 
	C149.349701,217.168152 149.349701,217.168167 145.255615,206.509781 
	C141.296036,196.201553 141.543839,195.827377 152.392410,195.799072 
	C158.058395,195.784302 163.742111,195.500061 169.384750,195.858307 
	C173.848831,196.141754 175.729736,194.620041 176.879288,190.184113 
	C181.013748,174.229965 187.613037,159.308960 198.228531,146.538467 
	C212.474075,129.401001 230.310425,118.765991 253.511246,117.634613 
M254.263504,295.384003 
	C237.277298,295.373627 220.291046,295.375763 203.304901,295.340668 
	C200.442398,295.334747 197.698959,295.258575 198.547562,299.486664 
	C202.261276,317.990112 208.464951,335.362091 220.919617,350.019135 
	C238.013260,370.135529 262.137604,376.023987 283.567474,365.177155 
	C303.707153,354.983368 307.919952,324.870911 291.687012,309.224274 
	C281.384644,299.294037 268.708801,296.453217 254.263504,295.384003 
M293.496948,254.985428 
	C302.227020,245.833389 306.389648,234.582825 308.537811,222.386292 
	C309.235016,218.427658 307.697510,217.097000 303.710510,217.110703 
	C269.547607,217.228073 235.384064,217.240219 201.221130,217.139053 
	C197.578934,217.128281 196.326736,218.433716 195.946228,221.945923 
	C194.328644,236.876602 193.639206,251.780624 195.062943,266.789032 
	C195.442886,270.794159 196.812317,271.784180 200.544022,271.753876 
	C218.207764,271.610291 235.874054,271.599304 253.538071,271.727692 
	C269.013550,271.840179 282.183533,266.592102 293.496948,254.985428 
z"/>
<path fill="#000000" opacity="1.000000" stroke="none" 
	d="
M128.536835,386.563721 
	C119.332367,383.741821 116.997711,377.918427 117.408966,368.790863 
	C118.232643,350.509491 117.650909,332.164734 117.649422,313.846161 
	C117.649277,312.049347 117.649399,310.252502 117.649399,308.019379 
	C111.522835,309.010590 106.263367,311.041290 100.662430,311.756256 
	C70.180000,315.647430 38.455605,291.992371 33.674397,261.593964 
	C30.703285,242.703949 35.017796,226.072113 48.088768,211.768387 
	C69.267311,188.592453 114.483841,189.119812 131.884644,224.445435 
	C138.231705,237.330673 141.507858,250.978287 142.309982,265.216034 
	C144.568832,305.311462 142.780746,345.447113 143.301254,385.561371 
	C143.388153,392.259369 141.427612,393.342041 135.499023,390.216980 
	C133.290482,389.052826 131.078293,387.895599 128.536835,386.563721 
M58.267750,242.830338 
	C55.385857,248.859406 54.821484,255.247482 55.196625,261.818176 
	C55.946949,274.960297 63.837257,284.888153 76.755112,287.780121 
	C90.375351,290.829315 103.508888,288.128662 116.280304,283.125092 
	C117.793205,282.532349 118.685555,281.602783 118.848633,279.839050 
	C120.208595,265.131073 119.775574,250.506378 114.912727,236.465195 
	C109.812088,221.737396 96.239380,215.680267 81.494926,220.961823 
	C70.886444,224.761841 63.769112,232.424179 58.267750,242.830338 
z"/>
</svg>
